img/sections-background/waves-background.svg

<svg viewBox="0 0 1600 800" xmlns="http://www.w3.org/2000/svg"><path d="m0 0h1600v800h-1600z" fill="#00665b"/><g fill-opacity=".69"><path d="m486 705.8c-109.3-21.8-223.4-32.2-335.3-19.4-51.2 5.7-101.7 16.6-150.7 33.4v80.2h843.8c-115.9-33.2-230.8-68.1-347.6-92.2-3.4-.7-6.8-1.3-10.2-2z" fill="#037167"/><path d="m1600 0h-1600v719.8c49-16.8 99.5-27.8 150.7-33.5 111.9-12.7 226-2.4 335.3 19.4 3.4.7 6.8 1.4 10.2 2 116.8 24 231.7 59 347.6 92.2h756.2z" fill="#067b73"/><path d="m478.4 581c3.2.8 6.4 1.7 9.5 2.5 196.2 52.5 388.7 133.5 593.5 176.6 174.2 36.6 349.5 29.2 518.6-10.2v-749.9h-1600v574.9c52.3-17.6 106.5-27.7 161.1-30.9 107.3-6.6 214.6 10.2 317.3 37z" fill="#0b8680"/><path d="m0 0v429.4c55.6-18.4 113.5-27.3 171.4-27.7 102.8-.8 203.2 22.7 299.3 54.5 3 1 5.9 2 8.9 3 183.6 62 365.7 146.1 562.4 192.1 186.7 43.7 376.3 34.4 557.9-12.6v-638.7z" fill="#0f928c"/><path d="m181.8 259.4c98.2 6 191.9 35.2 281.3 72.1 2.8 1.1 5.5 2.3 8.3 3.4 171 71.6 342.7 158.5 531.3 207.7 198.8 51.8 403.4 40.8 597.3-14.8v-527.8h-1600v283.2c59-19.6 120.6-27.5 181.8-23.8z" fill="#139d99"/><path d="m1600 0h-1600v136.3c62.3-20.9 127.7-27.5 192.2-19.2 93.6 12.1 180.5 47.7 263.3 89.6 2.6 1.3 5.1 2.6 7.7 3.9 158.4 81.1 319.7 170.9 500.3 223.2 210.5 61 430.8 49 636.6-16.6v-417.2z" fill="#109f9a"/><path d="m454.9 86.3c145.8 90.7 296.7 183 469.2 238.7 208.6 67.4 431.3 60.8 637.9-5.3 12.8-4.1 25.4-8.4 38.1-12.9v-306.8h-1312c56 21.3 108.7 50.6 159.7 82 2.4 1.4 4.7 2.9 7.1 4.3z" fill="#0da29b"/><path d="m1600 0h-1102c118.1 85.8 243.5 164.5 386.8 216.2 191.8 69.2 400 74.7 595 21.1 40.8-11.2 81.1-25.2 120.3-41.7v-195.6z" fill="#09a49b"/><path d="m1397.5 154.8c47.2-10.6 93.6-25.3 138.6-43.8 21.7-8.9 43-18.8 63.9-29.5v-81.5h-956.6c62.9 41.7 129.7 78.2 202.1 107.4 174.9 70.7 368.7 88.7 552 47.4z" fill="#05a79c"/><path d="m1315.3 72.4c75.3-12.6 148.9-37.1 216.8-72.4h-723c157.7 71 335.6 101 506.2 72.4z" fill="#00a99d"/></g></svg>

﻿<svg xmlns='http://www.w3.org/2000/svg' width='100%' height='100%' viewBox='0 0 1600 800'><rect fill='#00665b' width='1600' height='800'/><g fill-opacity='0.69'><path fill='#037167' d='M486 705.8c-109.3-21.8-223.4-32.2-335.3-19.4C99.5 692.1 49 703 0 719.8V800h843.8c-115.9-33.2-230.8-68.1-347.6-92.2C492.8 707.1 489.4 706.5 486 705.8z'/><path fill='#067b73' d='M1600 0H0v719.8c49-16.8 99.5-27.8 150.7-33.5c111.9-12.7 226-2.4 335.3 19.4c3.4 0.7 6.8 1.4 10.2 2c116.8 24 231.7 59 347.6 92.2H1600V0z'/><path fill='#0b8680' d='M478.4 581c3.2 0.8 6.4 1.7 9.5 2.5c196.2 52.5 388.7 133.5 593.5 176.6c174.2 36.6 349.5 29.2 518.6-10.2V0H0v574.9c52.3-17.6 106.5-27.7 161.1-30.9C268.4 537.4 375.7 554.2 478.4 581z'/><path fill='#0f928c' d='M0 0v429.4c55.6-18.4 113.5-27.3 171.4-27.7c102.8-0.8 203.2 22.7 299.3 54.5c3 1 5.9 2 8.9 3c183.6 62 365.7 146.1 562.4 192.1c186.7 43.7 376.3 34.4 557.9-12.6V0H0z'/><path fill='#139d99' d='M181.8 259.4c98.2 6 191.9 35.2 281.3 72.1c2.8 1.1 5.5 2.3 8.3 3.4c171 71.6 342.7 158.5 531.3 207.7c198.8 51.8 403.4 40.8 597.3-14.8V0H0v283.2C59 263.6 120.6 255.7 181.8 259.4z'/><path fill='#109f9a' d='M1600 0H0v136.3c62.3-20.9 127.7-27.5 192.2-19.2c93.6 12.1 180.5 47.7 263.3 89.6c2.6 1.3 5.1 2.6 7.7 3.9c158.4 81.1 319.7 170.9 500.3 223.2c210.5 61 430.8 49 636.6-16.6V0z'/><path fill='#0da29b' d='M454.9 86.3C600.7 177 751.6 269.3 924.1 325c208.6 67.4 431.3 60.8 637.9-5.3c12.8-4.1 25.4-8.4 38.1-12.9V0H288.1c56 21.3 108.7 50.6 159.7 82C450.2 83.4 452.5 84.9 454.9 86.3z'/><path fill='#09a49b' d='M1600 0H498c118.1 85.8 243.5 164.5 386.8 216.2c191.8 69.2 400 74.7 595 21.1c40.8-11.2 81.1-25.2 120.3-41.7V0z'/><path fill='#05a79c' d='M1397.5 154.8c47.2-10.6 93.6-25.3 138.6-43.8c21.7-8.9 43-18.8 63.9-29.5V0H643.4c62.9 41.7 129.7 78.2 202.1 107.4C1020.4 178.1 1214.2 196.1 1397.5 154.8z'/><path fill='#00a99d' d='M1315.3 72.4c75.3-12.6 148.9-37.1 216.8-72.4h-723C966.8 71 1144.7 101 1315.3 72.4z'/></g></svg>
